;Sliced by ideaMaker 4.2.2.5450, 2021-12-29 12:38:53 UTC+0000
;Dimension: 200.000 9999.000 170.000 0.400
;Plate Shape: 0
;Origin Center: 0
;Belt Printer: 1
;Belt Base Y: 5218.550
;Belt Base Z: 0.000
;Belt Offset Y: 0.000
;Belt Offset Z: 3690.072
;Belt Gantry Angle: 45
;Belt Remove Z: 0.283
;Belt Repetition: 1
;Extruder Offset #1: 25.000 0.000
;Filament Diameter #1: 1.750
;Filament Diameter #2: 1.750
;Filament Compensation #1: 90.00
;Filament Compensation #2: 90.00
;Filament Density #1: 1240.00
;Filament Density #2: 1240.00
;Bounding Box: 10.450 189.550 0.000 0.509 0.200 126.683
;Model Gap: 0.000
;
;
M221 T0 S90.00
M140 S60.00
M104 T0 S210.00
M109 T0 S210.00
T0
M190 S60.00
G90               ; Set to Absolute Positioning
M82               ; Set extruder to absolute mode
G21               ; Metric values
G28
G92 E0   ; Set all axis to 0
G1 Y.2
G1 X180 E20 F500
G1 Z.3
G1 X0 E40
G92 E0 Z0
M117 Sliced with IdeaMaker...
;end of Start GCode
;TOTAL_NUM: 1
;PRINTING_TIME: 0
;REMAINING_TIME: 9882
M83
M808 L
;LAYER:0
;Z:0.400
;HEIGHT:0.400
;HEIGHT-BELT:0.283
;BELT-FIRST-Z:0.400
M106 S204
M140 S60
M104 T0 S220
;PRINTING: CR30_belt_clean (1).STL
;PRINTING_ID: 0
G1 F3600 E-6.0000
G0 F6000 X10.650 Y0.200
G0 F300 Z0.400
;TYPE:WALL-OUTER
;WIDTH:0.400
;HEIGHT:0.400
;HEIGHT-BELT:0.283
G1 F1500 E6.0000
G1 F1441 X189.350 Y0.200 E5.9436
G1 X189.350 Y0.309 E0.0036
G1 X10.941 Y0.309 E5.9339
G0 F1441 X10.650 Y0.309
G0 F1441 X10.650 Y0.200
;PRINTING_TIME: 16
;REMAINING_TIME: 9866
;LAYER:1
;Z:0.683
;HEIGHT:0.283
;HEIGHT-BELT:0.200
M106 S207
;PRINTING: CR30_belt_clean (1).STL
;PRINTING_ID: 0
G1 F3600 E-6.0000
G0 F300 Z0.683
G0 F6000 X10.650 Y0.200
;TYPE:WALL-OUTER
;WIDTH:0.400
G1 F1500 E6.0000
G1 F1430 X189.350 Y0.200 E5.9436
G1 X189.350 Y0.309 E0.0036
G1 X10.941 Y0.309 E5.9339
G0 F1430 X10.650 Y0.309
G0 F1430 X10.650 Y0.200
;PRINTING_TIME: 31
;REMAINING_TIME: 9851
;LAYER:2
;Z:0.966
;HEIGHT:0.283
;HEIGHT-BELT:0.200
;PRINTING: CR30_belt_clean (1).STL
;PRINTING_ID: 0
G1 F3600 E-6.0000
G0 F300 Z0.966
G0 F6000 X10.650 Y0.200
;TYPE:WALL-OUTER
;WIDTH:0.400
G1 F1500 E6.0000
G1 F1430 X189.350 Y0.200 E5.9436
G1 X189.350 Y0.309 E0.0036
G1 X10.941 Y0.309 E5.9339
G0 F1430 X10.650 Y0.309
G0 F1430 X10.650 Y0.200
;PRINTING_TIME: 47
;REMAINING_TIME: 9835
;LAYER:3
;Z:1.249
;HEIGHT:0.283
;HEIGHT-BELT:0.200
;PRINTING: CR30_belt_clean (1).STL
;PRINTING_ID: 0
G1 F3600 E-6.0000
G0 F300 Z1.249
G0 F6000 X10.650 Y0.200
;TYPE:WALL-OUTER
;WIDTH:0.400
G1 F1500 E6.0000
G1 F1430 X189.350 Y0.200 E5.9436
G1 X189.350 Y0.309 E0.0036
G1 X10.941 Y0.309 E5.9339
G0 F1430 X10.650 Y0.309
G0 F1430 X10.650 Y0.200
;PRINTING_TIME: 63
;REMAINING_TIME: 9819
;LAYER:4
;Z:1.532
;HEIGHT:0.283
;HEIGHT-BELT:0.200
M106 S255
;PRINTING: CR30_belt_clean (1).STL
;PRINTING_ID: 0
G1 F3600 E-6.0000
G0 F300 Z1.532
G0 F6000 X10.650 Y0.200
;TYPE:WALL-OUTER
;WIDTH:0.400
G1 F1500 E6.0000
G1 F1430 X189.350 Y0.200 E5.9436
G1 X189.350 Y0.309 E0.0036
G1 X10.941 Y0.309 E5.9339
G0 F1430 X10.650 Y0.309
G0 F1430 X10.650 Y0.200
;PRINTING_TIME: 78
;REMAINING_TIME: 9804
;LAYER:5
;Z:1.815
;HEIGHT:0.283
;HEIGHT-BELT:0.200
;PRINTING: CR30_belt_clean (1).STL
;PRINTING_ID: 0
G1 F3600 E-6.0000
G0 F300 Z1.815
G0 F6000 X10.650 Y0.200
;TYPE:WALL-OUTER
;WIDTH:0.400
G1 F1500 E6.0000
G1 F1430 X189.350 Y0.200 E5.9436
G1 X189.350 Y0.309 E0.0036
G1 X10.941 Y0.309 E5.9339
G0 F1430 X10.650 Y0.309
G0 F1430 X10.650 Y0.200
;PRINTING_TIME: 94
;REMAINING_TIME: 9788
;LAYER:6
;Z:2.098
;HEIGHT:0.283
;HEIGHT-BELT:0.200
;PRINTING: CR30_belt_clean (1).STL
;PRINTING_ID: 0
G1 F3600 E-6.0000
G0 F300 Z2.098
G0 F6000 X10.650 Y0.200
;TYPE:WALL-OUTER
;WIDTH:0.400
G1 F1500 E6.0000
G1 F1430 X189.350 Y0.200 E5.9436
G1 X189.350 Y0.309 E0.0036
G1 X10.941 Y0.309 E5.9339
G0 F1430 X10.650 Y0.309
G0 F1430 X10.650 Y0.200
;PRINTING_TIME: 110
;REMAINING_TIME: 9772
;LAYER:7
;Z:2.381
;HEIGHT:0.283
;HEIGHT-BELT:0.200
;PRINTING: CR30_belt_clean (1).STL
;PRINTING_ID: 0
G1 F3600 E-6.0000
G0 F300 Z2.381
G0 F6000 X10.650 Y0.200
;TYPE:WALL-OUTER
;WIDTH:0.400
G1 F1500 E6.0000
G1 F1430 X189.350 Y0.200 E5.9436
G1 X189.350 Y0.309 E0.0036
G1 X10.941 Y0.309 E5.9339
G0 F1430 X10.650 Y0.309
G0 F1430 X10.650 Y0.200
;PRINTING_TIME: 125
;REMAINING_TIME: 9757
;LAYER:8
;Z:2.664
;HEIGHT:0.283
;HEIGHT-BELT:0.200
;PRINTING: CR30_belt_clean (1).STL
;PRINTING_ID: 0
G1 F3600 E-6.0000
G0 F300 Z2.664
G0 F6000 X10.650 Y0.200
;TYPE:WALL-OUTER
;WIDTH:0.400
G1 F1500 E6.0000
G1 F1430 X189.350 Y0.200 E5.9436
G1 X189.350 Y0.309 E0.0036
G1 X10.941 Y0.309 E5.9339
G0 F1430 X10.650 Y0.309
G0 F1430 X10.650 Y0.200
;PRINTING_TIME: 141
;REMAINING_TIME: 9741
;LAYER:9
;Z:2.947
;HEIGHT:0.283
;HEIGHT-BELT:0.200
;PRINTING: CR30_belt_clean (1).STL
;PRINTING_ID: 0
G1 F3600 E-6.0000
G0 F300 Z2.947
G0 F6000 X10.650 Y0.200
;TYPE:WALL-OUTER
;WIDTH:0.400
G1 F1500 E6.0000
G1 F1430 X189.350 Y0.200 E5.9436
G1 X189.350 Y0.309 E0.0036
G1 X10.941 Y0.309 E5.9339
G0 F1430 X10.650 Y0.309
G0 F1430 X10.650 Y0.200
;PRINTING_TIME: 156
;REMAINING_TIME: 9725
;LAYER:10
;Z:3.230
;HEIGHT:0.283
;HEIGHT-BELT:0.200
;PRINTING: CR30_belt_clean (1).STL
;PRINTING_ID: 0
G1 F3600 E-6.0000
G0 F300 Z3.230
G0 F6000 X10.650 Y0.200
;TYPE:WALL-OUTER
;WIDTH:0.400
G1 F1500 E6.0000
G1 F1430 X189.350 Y0.200 E5.9436
G1 X189.350 Y0.309 E0.0036
G1 X10.941 Y0.309 E5.9339
G0 F1430 X10.650 Y0.309
G0 F1430 X10.650 Y0.200
;PRINTING_TIME: 172
;REMAINING_TIME: 9710
;LAYER:11
;Z:3.513
;HEIGHT:0.283
;HEIGHT-BELT:0.200
;PRINTING: CR30_belt_clean (1).STL
;PRINTING_ID: 0
G1 F3600 E-6.0000
G0 F300 Z3.513
G0 F6000 X10.650 Y0.200
;TYPE:WALL-OUTER
;WIDTH:0.400
G1 F1500 E6.0000
G1 F1430 X189.350 Y0.200 E5.9436
G1 X189.350 Y0.309 E0.0036
G1 X10.941 Y0.309 E5.9339
G0 F1430 X10.650 Y0.309
G0 F1430 X10.650 Y0.200
;PRINTING_TIME: 188
;REMAINING_TIME: 9694
;LAYER:12
;Z:3.796
;HEIGHT:0.283
;HEIGHT-BELT:0.200
;PRINTING: CR30_belt_clean (1).STL
;PRINTING_ID: 0
G1 F3600 E-6.0000
G0 F300 Z3.796
G0 F6000 X10.650 Y0.200
;TYPE:WALL-OUTER
;WIDTH:0.400
G1 F1500 E6.0000
G1 F1430 X189.350 Y0.200 E5.9436
G1 X189.350 Y0.309 E0.0036
G1 X10.941 Y0.309 E5.9339
G0 F1430 X10.650 Y0.309
G0 F1430 X10.650 Y0.200
;PRINTING_TIME: 203
;REMAINING_TIME: 9679
;LAYER:13
;Z:4.079
;HEIGHT:0.283
;HEIGHT-BELT:0.200
;PRINTING: CR30_belt_clean (1).STL
;PRINTING_ID: 0
G1 F3600 E-6.0000
G0 F300 Z4.079
G0 F6000 X10.650 Y0.200
;TYPE:WALL-OUTER
;WIDTH:0.400
G1 F1500 E6.0000
G1 F1430 X189.350 Y0.200 E5.9436
G1 X189.350 Y0.309 E0.0036
G1 X10.941 Y0.309 E5.9339
G0 F1430 X10.650 Y0.309
G0 F1430 X10.650 Y0.200
;PRINTING_TIME: 219
;REMAINING_TIME: 9663
;LAYER:14
;Z:4.362
;HEIGHT:0.283
;HEIGHT-BELT:0.200
;PRINTING: CR30_belt_clean (1).STL
;PRINTING_ID: 0
G1 F3600 E-6.0000
G0 F300 Z4.362
G0 F6000 X10.650 Y0.200
;TYPE:WALL-OUTER
;WIDTH:0.400
G1 F1500 E6.0000
G1 F1430 X189.350 Y0.200 E5.9436
G1 X189.350 Y0.309 E0.0036
G1 X10.941 Y0.309 E5.9339
G0 F1430 X10.650 Y0.309
G0 F1430 X10.650 Y0.200
;PRINTING_TIME: 235
;REMAINING_TIME: 9647
;LAYER:15
;Z:4.645
;HEIGHT:0.283
;HEIGHT-BELT:0.200
;PRINTING: CR30_belt_clean (1).STL
;PRINTING_ID: 0
G1 F3600 E-6.0000
G0 F300 Z4.645
G0 F6000 X10.650 Y0.200
;TYPE:WALL-OUTER
;WIDTH:0.400
G1 F1500 E6.0000
G1 F1430 X189.350 Y0.200 E5.9436
G1 X189.350 Y0.309 E0.0036
G1 X10.941 Y0.309 E5.9339
G0 F1430 X10.650 Y0.309
G0 F1430 X10.650 Y0.200
;PRINTING_TIME: 250
;REMAINING_TIME: 9632
;LAYER:16
;Z:4.928
;HEIGHT:0.283
;HEIGHT-BELT:0.200
;PRINTING: CR30_belt_clean (1).STL
;PRINTING_ID: 0
G1 F3600 E-6.0000
G0 F300 Z4.928
G0 F6000 X10.650 Y0.200
;TYPE:WALL-OUTER
;WIDTH:0.400
G1 F1500 E6.0000
G1 F1430 X189.350 Y0.200 E5.9436
G1 X189.350 Y0.309 E0.0036
G1 X10.941 Y0.309 E5.9339
G0 F1430 X10.650 Y0.309
G0 F1430 X10.650 Y0.200
;PRINTING_TIME: 266
;REMAINING_TIME: 9616
;LAYER:17
;Z:5.211
;HEIGHT:0.283
;HEIGHT-BELT:0.200
;PRINTING: CR30_belt_clean (1).STL
;PRINTING_ID: 0
G1 F3600 E-6.0000
G0 F300 Z5.211
G0 F6000 X10.650 Y0.200
;TYPE:WALL-OUTER
;WIDTH:0.400
G1 F1500 E6.0000
G1 F1430 X189.350 Y0.200 E5.9436
G1 X189.350 Y0.309 E0.0036
G1 X10.941 Y0.309 E5.9339
G0 F1430 X10.650 Y0.309
G0 F1430 X10.650 Y0.200
;PRINTING_TIME: 282
;REMAINING_TIME: 9600
;LAYER:18
;Z:5.494
;HEIGHT:0.283
;HEIGHT-BELT:0.200
;PRINTING: CR30_belt_clean (1).STL
;PRINTING_ID: 0
G1 F3600 E-6.0000
G0 F300 Z5.494
G0 F6000 X10.650 Y0.200
;TYPE:WALL-OUTER
;WIDTH:0.400
G1 F1500 E6.0000
G1 F1430 X189.350 Y0.200 E5.9436
G1 X189.350 Y0.309 E0.0036
G1 X10.941 Y0.309 E5.9339
G0 F1430 X10.650 Y0.309
G0 F1430 X10.650 Y0.200
;PRINTING_TIME: 297
;REMAINING_TIME: 9585
;LAYER:19
;Z:5.777
;HEIGHT:0.283
;HEIGHT-BELT:0.200
;PRINTING: CR30_belt_clean (1).STL
;PRINTING_ID: 0
G1 F3600 E-6.0000
G0 F300 Z5.777
G0 F6000 X10.650 Y0.200
;TYPE:WALL-OUTER
;WIDTH:0.400
G1 F1500 E6.0000
G1 F1430 X189.350 Y0.200 E5.9436
G1 X189.350 Y0.309 E0.0036
G1 X10.941 Y0.309 E5.9339
G0 F1430 X10.650 Y0.309
G0 F1430 X10.650 Y0.200
;PRINTING_TIME: 313
;REMAINING_TIME: 9569
;LAYER:20
;Z:6.060
;HEIGHT:0.283
;HEIGHT-BELT:0.200
;PRINTING: CR30_belt_clean (1).STL
;PRINTING_ID: 0
G1 F3600 E-6.0000
G0 F300 Z6.060
G0 F6000 X10.650 Y0.200
;TYPE:WALL-OUTER
;WIDTH:0.400
G1 F1500 E6.0000
G1 F1430 X189.350 Y0.200 E5.9436
G1 X189.350 Y0.309 E0.0036
G1 X10.941 Y0.309 E5.9339
G0 F1430 X10.650 Y0.309
G0 F1430 X10.650 Y0.200
;PRINTING_TIME: 328
;REMAINING_TIME: 9553
;LAYER:21
;Z:6.343
;HEIGHT:0.283
;HEIGHT-BELT:0.200
;PRINTING: CR30_belt_clean (1).STL
;PRINTING_ID: 0
G1 F3600 E-6.0000
G0 F300 Z6.343
G0 F6000 X10.650 Y0.200
;TYPE:WALL-OUTER
;WIDTH:0.400
G1 F1500 E6.0000
G1 F1430 X189.350 Y0.200 E5.9436
G1 X189.350 Y0.309 E0.0036
G1 X10.941 Y0.309 E5.9339
G0 F1430 X10.650 Y0.309
G0 F1430 X10.650 Y0.200
;PRINTING_TIME: 344
;REMAINING_TIME: 9538
;LAYER:22
;Z:6.626
;HEIGHT:0.283
;HEIGHT-BELT:0.200
;PRINTING: CR30_belt_clean (1).STL
;PRINTING_ID: 0
G1 F3600 E-6.0000
G0 F300 Z6.626
G0 F6000 X10.650 Y0.200
;TYPE:WALL-OUTER
;WIDTH:0.400
G1 F1500 E6.0000
G1 F1430 X189.350 Y0.200 E5.9436
G1 X189.350 Y0.309 E0.0036
G1 X10.941 Y0.309 E5.9339
G0 F1430 X10.650 Y0.309
G0 F1430 X10.650 Y0.200
;PRINTING_TIME: 360
;REMAINING_TIME: 9522
;LAYER:23
;Z:6.909
;HEIGHT:0.283
;HEIGHT-BELT:0.200
;PRINTING: CR30_belt_clean (1).STL
;PRINTING_ID: 0
G1 F3600 E-6.0000
G0 F300 Z6.909
G0 F6000 X10.650 Y0.200
;TYPE:WALL-OUTER
;WIDTH:0.400
G1 F1500 E6.0000
G1 F1430 X189.350 Y0.200 E5.9436
G1 X189.350 Y0.309 E0.0036
G1 X10.941 Y0.309 E5.9339
G0 F1430 X10.650 Y0.309
G0 F1430 X10.650 Y0.200
;PRINTING_TIME: 375
;REMAINING_TIME: 9507
;LAYER:24
;Z:7.192
;HEIGHT:0.283
;HEIGHT-BELT:0.200
;PRINTING: CR30_belt_clean (1).STL
;PRINTING_ID: 0
G1 F3600 E-6.0000
G0 F300 Z7.192
G0 F6000 X10.650 Y0.200
;TYPE:WALL-OUTER
;WIDTH:0.400
G1 F1500 E6.0000
G1 F1430 X189.350 Y0.200 E5.9436
G1 X189.350 Y0.309 E0.0036
G1 X10.941 Y0.309 E5.9339
G0 F1430 X10.650 Y0.309
G0 F1430 X10.650 Y0.200
;PRINTING_TIME: 391
;REMAINING_TIME: 9491
;LAYER:25
;Z:7.475
;HEIGHT:0.283
;HEIGHT-BELT:0.200
;PRINTING: CR30_belt_clean (1).STL
;PRINTING_ID: 0
G1 F3600 E-6.0000
G0 F300 Z7.475
G0 F6000 X10.650 Y0.200
;TYPE:WALL-OUTER
;WIDTH:0.400
G1 F1500 E6.0000
G1 F1430 X189.350 Y0.200 E5.9436
G1 X189.350 Y0.309 E0.0036
G1 X10.941 Y0.309 E5.9339
G0 F1430 X10.650 Y0.309
G0 F1430 X10.650 Y0.200
;PRINTING_TIME: 407
;REMAINING_TIME: 9475
;LAYER:26
;Z:7.758
;HEIGHT:0.283
;HEIGHT-BELT:0.200
;PRINTING: CR30_belt_clean (1).STL
;PRINTING_ID: 0
G1 F3600 E-6.0000
G0 F300 Z7.758
G0 F6000 X10.650 Y0.200
;TYPE:WALL-OUTER
;WIDTH:0.400
G1 F1500 E6.0000
G1 F1430 X189.350 Y0.200 E5.9436
G1 X189.350 Y0.309 E0.0036
G1 X10.941 Y0.309 E5.9339
G0 F1430 X10.650 Y0.309
G0 F1430 X10.650 Y0.200
;PRINTING_TIME: 422
;REMAINING_TIME: 9460
;LAYER:27
;Z:8.041
;HEIGHT:0.283
;HEIGHT-BELT:0.200
;PRINTING: CR30_belt_clean (1).STL
;PRINTING_ID: 0
G1 F3600 E-6.0000
G0 F300 Z8.041
G0 F6000 X10.650 Y0.200
;TYPE:WALL-OUTER
;WIDTH:0.400
G1 F1500 E6.0000
G1 F1430 X189.350 Y0.200 E5.9436
G1 X189.350 Y0.309 E0.0036
G1 X10.941 Y0.309 E5.9339
G0 F1430 X10.650 Y0.309
G0 F1430 X10.650 Y0.200
;PRINTING_TIME: 438
;REMAINING_TIME: 9444
;LAYER:28
;Z:8.324
;HEIGHT:0.283
;HEIGHT-BELT:0.200
;PRINTING: CR30_belt_clean (1).STL
;PRINTING_ID: 0
G1 F3600 E-6.0000
G0 F300 Z8.324
G0 F6000 X10.650 Y0.200
;TYPE:WALL-OUTER
;WIDTH:0.400
G1 F1500 E6.0000
G1 F1430 X189.350 Y0.200 E5.9436
G1 X189.350 Y0.309 E0.0036
G1 X10.941 Y0.309 E5.9339
G0 F1430 X10.650 Y0.309
G0 F1430 X10.650 Y0.200
;PRINTING_TIME: 454
;REMAINING_TIME: 9428
;LAYER:29
;Z:8.607
;HEIGHT:0.283
;HEIGHT-BELT:0.200
;PRINTING: CR30_belt_clean (1).STL
;PRINTING_ID: 0
G1 F3600 E-6.0000
G0 F300 Z8.607
G0 F6000 X10.650 Y0.200
;TYPE:WALL-OUTER
;WIDTH:0.400
G1 F1500 E6.0000
G1 F1430 X189.350 Y0.200 E5.9436
G1 X189.350 Y0.309 E0.0036
G1 X10.941 Y0.309 E5.9339
G0 F1430 X10.650 Y0.309
G0 F1430 X10.650 Y0.200
;PRINTING_TIME: 469
;REMAINING_TIME: 9413
;LAYER:30
;Z:8.890
;HEIGHT:0.283
;HEIGHT-BELT:0.200
;PRINTING: CR30_belt_clean (1).STL
;PRINTING_ID: 0
G1 F3600 E-6.0000
G0 F300 Z8.890
G0 F6000 X10.650 Y0.200
;TYPE:WALL-OUTER
;WIDTH:0.400
G1 F1500 E6.0000
G1 F1430 X189.350 Y0.200 E5.9436
G1 X189.350 Y0.309 E0.0036
G1 X10.941 Y0.309 E5.9339
G0 F1430 X10.650 Y0.309
G0 F1430 X10.650 Y0.200
;PRINTING_TIME: 485
;REMAINING_TIME: 9397
;LAYER:31
;Z:9.173
;HEIGHT:0.283
;HEIGHT-BELT:0.200
;PRINTING: CR30_belt_clean (1).STL
;PRINTING_ID: 0
G1 F3600 E-6.0000
G0 F300 Z9.173
G0 F6000 X10.650 Y0.200
;TYPE:WALL-OUTER
;WIDTH:0.400
G1 F1500 E6.0000
G1 F1430 X189.350 Y0.200 E5.9436
G1 X189.350 Y0.309 E0.0036
G1 X10.941 Y0.309 E5.9339
G0 F1430 X10.650 Y0.309
G0 F1430 X10.650 Y0.200
;PRINTING_TIME: 500
;REMAINING_TIME: 9381
;LAYER:32
;Z:9.456
;HEIGHT:0.283
;HEIGHT-BELT:0.200
;PRINTING: CR30_belt_clean (1).STL
;PRINTING_ID: 0
G1 F3600 E-6.0000
G0 F300 Z9.456
G0 F6000 X10.650 Y0.200
;TYPE:WALL-OUTER
;WIDTH:0.400
G1 F1500 E6.0000
G1 F1430 X189.350 Y0.200 E5.9436
G1 X189.350 Y0.309 E0.0036
G1 X10.941 Y0.309 E5.9339
G0 F1430 X10.650 Y0.309
G0 F1430 X10.650 Y0.200
;PRINTING_TIME: 516
;REMAINING_TIME: 9366
;LAYER:33
;Z:9.739
;HEIGHT:0.283
;HEIGHT-BELT:0.200
;PRINTING: CR30_belt_clean (1).STL
;PRINTING_ID: 0
G1 F3600 E-6.0000
G0 F300 Z9.739
G0 F6000 X10.650 Y0.200
;TYPE:WALL-OUTER
;WIDTH:0.400
G1 F1500 E6.0000
G1 F1430 X189.350 Y0.200 E5.9436
G1 X189.350 Y0.309 E0.0036
G1 X10.941 Y0.309 E5.9339
G0 F1430 X10.650 Y0.309
G0 F1430 X10.650 Y0.200
;PRINTING_TIME: 532
;REMAINING_TIME: 9350
;LAYER:34
;Z:10.022
;HEIGHT:0.283
;HEIGHT-BELT:0.200
;PRINTING: CR30_belt_clean (1).STL
;PRINTING_ID: 0
G1 F3600 E-6.0000
G0 F300 Z10.022
G0 F6000 X10.650 Y0.200
;TYPE:WALL-OUTER
;WIDTH:0.400
G1 F1500 E6.0000
G1 F1430 X189.350 Y0.200 E5.9436
G1 X189.350 Y0.309 E0.0036
G1 X10.941 Y0.309 E5.9339
G0 F1430 X10.650 Y0.309
G0 F1430 X10.650 Y0.200
;PRINTING_TIME: 547
;REMAINING_TIME: 9335
;LAYER:35
;Z:10.305
;HEIGHT:0.283
;HEIGHT-BELT:0.200
;PRINTING: CR30_belt_clean (1).STL
;PRINTING_ID: 0
G1 F3600 E-6.0000
G0 F300 Z10.305
G0 F6000 X10.650 Y0.200
;TYPE:WALL-OUTER
;WIDTH:0.400
G1 F1500 E6.0000
G1 F1430 X189.350 Y0.200 E5.9436
G1 X189.350 Y0.309 E0.0036
G1 X10.941 Y0.309 E5.9339
G0 F1430 X10.650 Y0.309
G0 F1430 X10.650 Y0.200
;PRINTING_TIME: 563
;REMAINING_TIME: 9319
;LAYER:36
;Z:10.588
;HEIGHT:0.283
;HEIGHT-BELT:0.200
;PRINTING: CR30_belt_clean (1).STL
;PRINTING_ID: 0
G1 F3600 E-6.0000
G0 F300 Z10.588
G0 F6000 X10.650 Y0.200
;TYPE:WALL-OUTER
;WIDTH:0.400
G1 F1500 E6.0000
G1 F1430 X189.350 Y0.200 E5.9436
G1 X189.350 Y0.309 E0.0036
G1 X10.941 Y0.309 E5.9339
G0 F1430 X10.650 Y0.309
G0 F1430 X10.650 Y0.200
